X: 132
T: Bai hao qiu The sand dunes of Agt
%%abc-version 2.0
%%abcx-abcm2ps-target-version 5.9.1 (29 Sep 2008)
%%abc-creator hum2abc beta
%%abcx-conversion-date 2013/10/02 07:44:27
%%abc-edited-by Helmut Schaffrath
%%humdrum-veritas 2736348344
%%humdrum-veritas-data 436834460
%%continueall 1
%%barnumbers 0
L: 1/8
M: 2/4
K: C
GA2c [I:setbarnb 1]| 
A GA,2 | 
DE2G | 
E CA,2 | 
GA2c | 
G> EA2 | 
GE3- | 
E4 | 
GA2c | 
A2a2 | 
DE2G | 
E Ca2 | 
CD2E | 
C A,E2 | 
CA,3- | 
A,4 |]  



